papirus/32x32/apps/doublecmd.svg

<?xml version="1.0" encoding="UTF-8" standalone="no"?>
<!-- Created with Inkscape (http://www.inkscape.org/) -->

<svg
   xmlns:dc="http://purl.org/dc/elements/1.1/"
   xmlns:cc="http://creativecommons.org/ns#"
   xmlns:rdf="http://www.w3.org/1999/02/22-rdf-syntax-ns#"
   xmlns:svg="http://www.w3.org/2000/svg"
   xmlns="http://www.w3.org/2000/svg"
   xmlns:sodipodi="http://sodipodi.sourceforge.net/DTD/sodipodi-0.dtd"
   xmlns:inkscape="http://www.inkscape.org/namespaces/inkscape"
   id="svg2817"
   height="32"
   width="32"
   version="1.0"
   inkscape:version="0.91 r13725"
   sodipodi:docname="doublecmd.svg">
  <sodipodi:namedview
     pagecolor="#ffffff"
     bordercolor="#666666"
     borderopacity="1"
     objecttolerance="10"
     gridtolerance="10"
     guidetolerance="10"
     inkscape:pageopacity="0"
     inkscape:pageshadow="2"
     inkscape:window-width="1600"
     inkscape:window-height="849"
     id="namedview14"
     showgrid="false"
     inkscape:zoom="17.31"
     inkscape:cx="12.808485"
     inkscape:cy="14.305466"
     inkscape:window-x="0"
     inkscape:window-y="0"
     inkscape:window-maximized="1"
     inkscape:current-layer="svg2817" />
  <metadata
     id="metadata57">
    <rdf:RDF>
      <cc:Work
         rdf:about="">
        <dc:format>image/svg+xml</dc:format>
        <dc:type
           rdf:resource="http://purl.org/dc/dcmitype/StillImage" />
        <dc:title></dc:title>
      </cc:Work>
    </rdf:RDF>
  </metadata>
  <defs
     id="defs2819" />
  <rect
     style="fill:#d95951"
     id="rect4203-6"
     ry="1.4"
     rx="1.4"
     transform="matrix(0,-1,-1,0,0,0)"
     height="28"
     width="28"
     y="-30"
     x="-30" />
  <path
     sodipodi:nodetypes="ccssssccssssc"
     inkscape:connector-curvature="0"
     id="path4308"
     d="m 4,7 0,4 4.896764,0 C 9.349009,11 10,11.547755 10,12 l 0,10 c 0,0.452246 -0.6517589,1.026343 -1.103236,1 L 4,23 l 0,4 8.571429,0 C 13.362857,27 14,26.362857 14,25.571429 L 14,8.4285714 C 14,7.6371429 13.362857,7 12.571429,7 Z"
     style="opacity:0.2;fill:#000000;fill-opacity:1;stroke:none;stroke-width:4;stroke-linecap:round;stroke-linejoin:round;stroke-miterlimit:4;stroke-dasharray:none;stroke-opacity:1" />
  <path
     style="opacity:1;fill:#ffffff;fill-opacity:1;stroke:none;stroke-width:4;stroke-linecap:round;stroke-linejoin:round;stroke-miterlimit:4;stroke-dasharray:none;stroke-opacity:1"
     d="m 4,6 0,4 4.896764,0 C 9.349009,10 10,10.547755 10,11 l 0,10 c 0,0.452246 -0.6517589,1.026343 -1.103236,1 L 4,22 l 0,4 8.571429,0 C 13.362857,26 14,25.362857 14,24.571429 L 14,7.4285714 C 14,6.6371429 13.362857,6 12.571429,6 Z"
     id="rect4174"
     inkscape:connector-curvature="0"
     sodipodi:nodetypes="ccssssccssssc" />
  <path
     style="opacity:0.2;fill:#000000;fill-opacity:1;stroke:none;stroke-width:4;stroke-linecap:round;stroke-linejoin:round;stroke-miterlimit:4;stroke-dasharray:none;stroke-opacity:1"
     d="m 28,7 0,4 -4.896764,0 C 22.650991,11 22,11.547755 22,12 l 0,10 c 0,0.452246 0.651759,1.026343 1.103236,1 L 28,23 l 0,4 -8.571429,0 C 18.637143,27 18,26.362857 18,25.571429 L 18,8.4285714 C 18,7.6371429 18.637143,7 19.428571,7 Z"
     id="path4310"
     inkscape:connector-curvature="0"
     sodipodi:nodetypes="ccssssccssssc" />
  <path
     sodipodi:nodetypes="ccssssccssssc"
     inkscape:connector-curvature="0"
     id="path4306"
     d="m 28,6 0,4 -4.896764,0 C 22.650991,10 22,10.547755 22,11 l 0,10 c 0,0.452246 0.651759,1.026343 1.103236,1 L 28,22 l 0,4 -8.571429,0 C 18.637143,26 18,25.362857 18,24.571429 L 18,7.4285714 C 18,6.6371429 18.637143,6 19.428571,6 Z"
     style="opacity:1;fill:#ffffff;fill-opacity:1;stroke:none;stroke-width:4;stroke-linecap:round;stroke-linejoin:round;stroke-miterlimit:4;stroke-dasharray:none;stroke-opacity:1" />
  <path
     style="fill:#ffffff;fill-opacity:1;opacity:0.2"
     d="M 3.4003906 2 C 2.6247906 2 2 2.6247906 2 3.4003906 L 2 4.4003906 C 2 3.6247906 2.6247906 3 3.4003906 3 L 28.599609 3 C 29.375209 3 30 3.6247906 30 4.4003906 L 30 3.4003906 C 30 2.6247906 29.375209 2 28.599609 2 L 3.4003906 2 z "
     id="rect4312" />
  <path
     style="fill:#000000;fill-opacity:1;opacity:0.3"
     d="M 2 27.599609 L 2 28.599609 C 2 29.375209 2.6247906 30 3.4003906 30 L 28.599609 30 C 29.375209 30 30 29.375209 30 28.599609 L 30 27.599609 C 30 28.375209 29.375209 29 28.599609 29 L 3.4003906 29 C 2.6247906 29 2 28.375209 2 27.599609 z "
     id="rect4317" />
</svg>

<?xml version="1.0" encoding="UTF-8" standalone="no"?>
<svg id="svg2817" xmlns:rdf="http://www.w3.org/1999/02/22-rdf-syntax-ns#" xmlns="http://www.w3.org/2000/svg" height="32" width="32" version="1.0" xmlns:cc="http://creativecommons.org/ns#" xmlns:dc="http://purl.org/dc/elements/1.1/">
 <metadata id="metadata57">
  <rdf:RDF>
   <cc:Work rdf:about="">
    <dc:format>image/svg+xml</dc:format>
    <dc:type rdf:resource="http://purl.org/dc/dcmitype/StillImage"/>
    <dc:title/>
   </cc:Work>
  </rdf:RDF>
 </metadata>
 <rect id="rect4203-6" ry="1.4" rx="1.4" transform="matrix(0,-1,-1,0,0,0)" height="28" width="28" y="-30" x="-30" fill="#d95951"/>
 <path id="path4308" opacity=".2" d="m4 7v4h4.8968c0.4522 0 1.1032 0.548 1.1032 1v10c0 0.45225-0.65176 1.0263-1.1032 1h-4.8968v4h8.5714c0.792 0 1.429-0.637 1.429-1.429v-17.142c0-0.7919-0.637-1.429-1.429-1.429z"/>
 <path id="rect4174" d="m4 6v4h4.8968c0.4522 0 1.1032 0.548 1.1032 1v10c0 0.45225-0.65176 1.0263-1.1032 1h-4.8968v4h8.5714c0.792 0 1.429-0.637 1.429-1.429v-17.142c0-0.7919-0.637-1.429-1.429-1.429z" fill="#fff"/>
 <path id="path4310" opacity=".2" d="m28 7v4h-4.8968c-0.452 0-1.103 0.548-1.103 1v10c0 0.45225 0.65176 1.0263 1.1032 1h4.897v4h-8.5714c-0.792 0-1.429-0.637-1.429-1.429v-17.142c0-0.7919 0.637-1.429 1.429-1.429z"/>
 <path id="path4306" d="m28 6v4h-4.8968c-0.452 0-1.103 0.548-1.103 1v10c0 0.45225 0.65176 1.0263 1.1032 1h4.897v4h-8.5714c-0.792 0-1.429-0.637-1.429-1.429v-17.142c0-0.7919 0.637-1.429 1.429-1.429z" fill="#fff"/>
 <path id="rect4312" opacity=".2" d="m3.4004 2c-0.7756 0-1.4004 0.6248-1.4004 1.4004v1c0-0.7756 0.6248-1.4004 1.4004-1.4004h25.2c0.775 0 1.4 0.6248 1.4 1.4004v-1c0-0.7756-0.625-1.4004-1.4-1.4004h-25.2z" fill="#fff"/>
 <path id="rect4317" opacity=".2" d="m2 28.6v1c0 0.775 0.6248 1.4 1.4004 1.4h25.2c0.775 0 1.4-0.625 1.4-1.4v-1c0 0.775-0.625 1.4-1.4 1.4h-25.2c-0.7752 0-1.4-0.625-1.4-1.4z"/>
</svg>
